icons/_assets/card_view.svg

<?xml version="1.0" encoding="UTF-8"?>
<svg width="100px" height="100px" viewBox="0 0 100 100" version="1.1" xmlns="http://www.w3.org/2000/svg" xmlns:xlink="http://www.w3.org/1999/xlink">
    <title>card view</title>
    <g id="card-view" stroke="none" stroke-width="1" fill="none" fill-rule="evenodd">
        <path d="M0,99.9998667 L100,99.9998667 L100,-0.000133333333 L0,-0.000133333333 L0,99.9998667 Z M1.34217378,98.6576929 L98.6578262,98.6576929 L98.6578262,1.34204045 L1.34217378,1.34204045 L1.34217378,98.6576929 Z" id="outline" fill="#EEEEEE" opacity="0"></path>
        <path d="M85.3600901,81.0418155 L58.4141451,84.1076195 L58.4141451,57.2315321 L85.3600901,54.1657281 L85.3600901,81.0418155 Z M87.4175587,49.2691785 L55.8317038,52.8618348 C54.6597952,52.9955335 53.7742352,53.9856982 53.7742352,55.1638353 L53.7742352,86.7034924 C53.7742352,87.3627197 54.0566069,87.9915007 54.549763,88.4323093 C54.9766347,88.8122255 55.5267955,89.0200541 56.0941902,89.0200541 C56.1803599,89.0200541 56.2691811,89.0147591 56.3566765,89.0054929 L87.9425314,85.4115128 C89.1144401,85.2778141 90,84.2876494 90,83.1095123 L90,51.5698552 C90,50.9106279 89.7176283,50.2818469 89.2244722,49.842362 C88.7326418,49.4028772 88.0817287,49.1950485 87.4175587,49.2691785 L87.4175587,49.2691785 Z M41.5858549,86.0217614 L14.6399099,89.0875654 L14.6399099,62.211478 L41.5858549,59.145674 L41.5858549,86.0217614 Z M43.6433235,54.2491243 L12.0574686,57.8417807 C10.8855599,57.9754794 10,58.965644 10,60.1437811 L10,91.6834383 C10,92.3439893 10.2823717,92.9727703 10.7755278,93.4122552 C11.2037252,93.7921713 11.7538859,94 12.3199549,94 C12.4074504,94 12.4949458,93.994705 12.5837669,93.9854388 L44.1696218,90.3914587 C45.3415305,90.25776 46.2257648,89.2675953 46.2257648,88.0894582 L46.2257648,56.5511248 C46.2257648,55.8905738 45.9447188,55.2617928 45.4515627,54.8223079 C44.9570808,54.382823 44.3074935,54.1749944 43.6433235,54.2491243 L43.6433235,54.2491243 Z M85.3600901,37.7882985 L58.4141451,40.8541025 L58.4141451,13.9766913 L85.3600901,10.9108874 L85.3600901,37.7882985 Z M89.2244722,6.58752128 C88.7326418,6.14803642 88.0817287,5.94153149 87.4175587,6.01433772 L55.8317038,9.60831778 C54.6597952,9.74069274 53.7742352,10.7321812 53.7742352,11.9089945 L53.7742352,43.4486516 C53.7742352,44.1092027 54.0566069,44.7379837 54.549763,45.1774686 C54.9766347,45.5573847 55.5267955,45.7652134 56.0941902,45.7652134 C56.1803599,45.7652134 56.2691811,45.7599184 56.3566765,45.7506521 L87.9425314,42.1566721 C89.1144401,42.0242971 90,41.0328087 90,39.8559953 L90,8.31633821 C90,7.65578718 89.7176283,7.02700613 89.2244722,6.58752128 L89.2244722,6.58752128 Z M41.5858549,42.7682444 L14.6399099,45.8340484 L14.6399099,18.957961 L41.5858549,15.892157 L41.5858549,42.7682444 Z M43.6433235,10.9942836 L12.0574686,14.5882636 C10.8855599,14.7206386 10,15.712127 10,16.8902641 L10,48.4285975 C10,49.0891485 10.2823717,49.7179296 10.7755278,50.1574144 C11.2037252,50.5386543 11.7538859,50.7451592 12.3199549,50.7451592 C12.4074504,50.7451592 12.4949458,50.7398642 12.5837669,50.730598 L44.1696218,47.1379417 C45.3415305,47.004243 46.2257648,46.0140783 46.2257648,44.8359412 L46.2257648,13.2962841 C46.2257648,12.635733 45.9447188,12.006952 45.4515627,11.5674671 C44.9570808,11.129306 44.3074935,10.9201536 43.6433235,10.9942836 L43.6433235,10.9942836 Z" id="icon" fill="#000000"></path>
    </g>
</svg>

<svg width="100" height="100" xmlns="http://www.w3.org/2000/svg"><g id="card-view" stroke="none" stroke-width="1" fill="none" fill-rule="evenodd"><path d="M85.36 81.042l-26.946 3.066V57.232l26.946-3.066v26.876zm2.058-31.773l-31.586 3.593a2.318 2.318 0 0 0-2.058 2.302v31.54a2.32 2.32 0 0 0 2.583 2.301l31.586-3.593A2.318 2.318 0 0 0 90 83.11V51.57c0-.66-.282-1.288-.776-1.728a2.313 2.313 0 0 0-1.806-.573zM41.586 86.022L14.64 89.088V62.21l26.946-3.065v26.876zm2.057-31.773l-31.586 3.593A2.318 2.318 0 0 0 10 60.144v31.54a2.316 2.316 0 0 0 2.584 2.301l31.586-3.594a2.317 2.317 0 0 0 2.056-2.302V56.551a2.314 2.314 0 0 0-2.583-2.302zM85.36 37.79l-26.946 3.065V13.977L85.36 10.91v26.877zm3.864-31.201a2.318 2.318 0 0 0-1.806-.574L55.832 9.608a2.317 2.317 0 0 0-2.058 2.301v31.54a2.316 2.316 0 0 0 2.583 2.302l31.586-3.594A2.317 2.317 0 0 0 90 39.856V8.316c0-.66-.282-1.289-.776-1.728zm-47.638 36.18L14.64 45.834V18.958l26.946-3.066v26.876zm2.057-31.774l-31.586 3.594A2.318 2.318 0 0 0 10 16.89v31.54a2.316 2.316 0 0 0 2.584 2.302l31.586-3.593a2.317 2.317 0 0 0 2.056-2.302v-31.54a2.314 2.314 0 0 0-2.583-2.302z" id="icon" fill="#000"/></g></svg>
